Newaita-dark/devices/16/media-memory-sm.svg

<svg height="16pt" viewBox="0 0 16 16" width="16pt" xmlns="http://www.w3.org/2000/svg" xmlns:xlink="http://www.w3.org/1999/xlink"><linearGradient id="a"><stop offset="0" stop-opacity=".27451"/><stop offset="1" stop-opacity="0"/></linearGradient><linearGradient id="b" gradientUnits="userSpaceOnUse" x1="7.938261" x2="7.938261" xlink:href="#a" y1="13.9911025" y2="14.65262443751"/><linearGradient id="c"><stop offset="0" stop-opacity=".313725"/><stop offset=".222222" stop-opacity=".27451"/><stop offset="1" stop-opacity="0"/></linearGradient><radialGradient id="d" cx="450.90894" cy="189.57936" gradientTransform="matrix(.00000009 -.0390662 -.0703192 -.00000005 25.238422 31.771802)" gradientUnits="userSpaceOnUse" r="21.166656" xlink:href="#c"/><radialGradient id="e" cx="450.90894" cy="189.57936" gradientTransform="matrix(-.00000009 .0390662 .0703192 .00000005 -9.361906 -3.789605)" gradientUnits="userSpaceOnUse" r="21.166656" xlink:href="#c"/><radialGradient id="f" cx="450.90894" cy="189.57936" gradientTransform="matrix(-.00000009 -.0390662 .0703192 -.00000005 -9.361906 31.771802)" gradientUnits="userSpaceOnUse" r="21.166656" xlink:href="#c"/><radialGradient id="g" cx="450.90894" cy="189.57936" gradientTransform="matrix(.00000009 .0390662 -.0703192 .00000005 25.238421 -3.789605)" gradientUnits="userSpaceOnUse" r="21.166656" xlink:href="#c"/><linearGradient id="h" gradientUnits="userSpaceOnUse" x1="7.938262" x2="7.938262" y1="15.34001137502" y2=".125009"><stop offset="0" stop-color="#424242"/><stop offset="1" stop-color="#616161"/></linearGradient><linearGradient id="i" gradientUnits="userSpaceOnUse" x1="7.938262" x2="7.938262" y1="14.0169675" y2="9.71707549999"><stop offset="0" stop-color="#bdbdbd"/><stop offset="1" stop-color="#e0e0e0"/></linearGradient><linearGradient id="j" gradientUnits="userSpaceOnUse" x1="7.938262" x2="7.938262" y1="14.0169675" y2="1.44805256249"><stop offset="0" stop-color="#ffca28"/><stop offset="1" stop-color="#ffd54f"/></linearGradient><linearGradient id="k" gradientUnits="userSpaceOnUse" x1="7.93826325" x2="7.93826325" xlink:href="#a" y1="8.063271" y2="2.77109612498"/><linearGradient id="l" gradientUnits="userSpaceOnUse" x1="8.76516525" x2="8.76516525" xlink:href="#a" y1="8.063271" y2="2.77109612498"/><linearGradient id="m" gradientUnits="userSpaceOnUse" x1="9.59206725" x2="9.59206725" xlink:href="#a" y1="8.063271" y2="2.77109612498"/><linearGradient id="n" gradientUnits="userSpaceOnUse" x1="10.41896925" x2="10.41896925" xlink:href="#a" y1="8.063271" y2="2.77109612498"/><linearGradient id="o" gradientUnits="userSpaceOnUse" x1="11.24587125" x2="11.24587125" xlink:href="#a" y1="8.063271" y2="2.77109612498"/><linearGradient id="p" gradientUnits="userSpaceOnUse" x1="7.11136125" x2="7.11136125" xlink:href="#a" y1="8.063271" y2="2.77109612498"/><linearGradient id="q" gradientUnits="userSpaceOnUse" x1="6.28445925" x2="6.28445925" xlink:href="#a" y1="8.063271" y2="2.77109612498"/><linearGradient id="r" gradientUnits="userSpaceOnUse" x1="5.45755725" x2="5.45755725" xlink:href="#a" y1="8.063271" y2="2.77109612498"/><linearGradient id="s" gradientUnits="userSpaceOnUse" x1="4.63065525" x2="4.63065525" xlink:href="#a" y1="8.063271" y2="2.77109612498"/><linearGradient id="t" gradientUnits="userSpaceOnUse" x1="7.938262" x2="7.938262" y1="14.0169675" y2="9.71707549999"><stop offset="0" stop-color="#ff7043"/><stop offset="1" stop-color="#ff8a65"/></linearGradient><path d="m3.804688 14.003906h8.269531v.675782h-8.269531zm0 0" fill="url(#b)"/><path d="m12.074219 13.992188h1.320312v-.664063h-1.320312zm0 0" fill="url(#d)"/><path d="m3.804688 13.992188h-1.324219v.660156h1.324219zm0 0" fill="url(#e)"/><path d="m3.804688 13.992188h-1.324219v-.664063h1.324219zm0 0" fill="url(#f)"/><path d="m12.074219 13.992188h1.320312v.660156h-1.320312zm0 0" fill="url(#g)"/><path d="m5.953125 1.453125c-.175781 0-.339844.066406-.464844.191406l-2.644531 2.644531c-.125.125-.195312.292969-.195312.464844v8.601563c0 .363281.296874.660156.660156.660156h9.261718c.363282 0 .65625-.296875.65625-.660156v-11.246094c0-.363281-.292968-.65625-.65625-.65625zm0 0" fill="url(#h)"/><path d="m4.300781 9.71875c-.367187 0-.664062.292969-.664062.660156v3.636719h8.601562v-3.636719c0-.367187-.296875-.660156-.660156-.660156zm0 0" fill="url(#i)"/><path d="m5.953125 2.773438c-.175781 0-.339844.070312-.464844.195312l-1.324219 1.320312c-.121093.125-.191406.292969-.191406.464844v2.648438c0 .363281.292969.65625.65625.65625h6.617188c.363281 0 .65625-.292969.65625-.65625v-3.96875c0-.363282-.292969-.660156-.65625-.660156zm0 0" fill="url(#j)"/><path d="m7.9375 3.265625c.09375 0 .167969.074219.167969.167969v3.96875c0 .089844-.074219.164062-.167969.164062-.089844 0-.164062-.074218-.164062-.164062v-3.96875c0-.09375.074218-.167969.164062-.167969zm0 0" fill="url(#k)"/><path d="m8.765625 3.265625c.089844 0 .164063.074219.164063.167969v3.96875c0 .089844-.074219.164062-.164063.164062-.09375 0-.164063-.074218-.164063-.164062v-3.96875c0-.09375.070313-.167969.164063-.167969zm0 0" fill="url(#l)"/><path d="m9.59375 3.265625c.089844 0 .164062.074219.164062.167969v3.96875c0 .089844-.074218.164062-.164062.164062-.09375 0-.167969-.074218-.167969-.164062v-3.96875c0-.09375.074219-.167969.167969-.167969zm0 0" fill="url(#m)"/><path d="m10.417969 3.265625c.09375 0 .167969.074219.167969.167969v3.96875c0 .089844-.074219.164062-.167969.164062-.089844 0-.164063-.074218-.164063-.164062v-3.96875c0-.09375.074219-.167969.164063-.167969zm0 0" fill="url(#n)"/><path d="m11.246094 3.265625c.089844 0 .164062.074219.164062.167969v3.96875c0 .089844-.074218.164062-.164062.164062s-.164063-.074218-.164063-.164062v-3.96875c0-.09375.074219-.167969.164063-.167969zm0 0" fill="url(#o)"/><path d="m7.113281 3.265625c.089844 0 .164063.074219.164063.167969v3.96875c0 .089844-.074219.164062-.164063.164062-.09375 0-.167969-.074218-.167969-.164062v-3.96875c0-.09375.074219-.167969.167969-.167969zm0 0" fill="url(#p)"/><path d="m6.285156 3.265625c.089844 0 .164063.074219.164063.167969v3.96875c0 .089844-.074219.164062-.164063.164062-.09375 0-.167968-.074218-.167968-.164062v-3.96875c0-.09375.074218-.167969.167968-.167969zm0 0" fill="url(#q)"/><path d="m5.457031 3.597656c.09375 0 .164063.074219.164063.164063v3.640625c0 .089844-.070313.164062-.164063.164062-.089843 0-.164062-.074218-.164062-.164062v-3.640625c0-.089844.074219-.164063.164062-.164063zm0 0" fill="url(#r)"/><path d="m4.628906 4.425781c.09375 0 .167969.074219.167969.164063v2.8125c0 .089844-.074219.164062-.167969.164062-.089844 0-.164062-.074218-.164062-.164062v-2.8125c0-.089844.074218-.164063.164062-.164063zm0 0" fill="url(#s)"/><path d="m190.48181-126.258474c-5.624463 0-10.873962 2.249785-14.87358 6.249403l-42.370954 42.245966c-3.87463 3.999618-6.124415 9.374104-6.124415 14.873579v84.741908c0 11.62389 9.374105 20.997995 20.997995 20.997995h211.729781c11.62389 0 20.997995-9.374105 20.997995-20.997995v-126.987874c0-11.62389-9.374105-21.122982-20.997995-21.122982zm0 0" fill="none" stroke="#212121" stroke-linecap="round" stroke-linejoin="round" stroke-width="3" transform="matrix(.031253 0 0 .031253 0 6.719392)"/><path d="m5.953125 1.453125c-.175781 0-.339844.066406-.464844.191406l-2.644531 2.644531c-.125.125-.195312.292969-.195312.464844v.164063c0-.175781.070312-.34375.195312-.464844l2.644531-2.648437c.125-.121094.289063-.191407.464844-.191407h6.617187c.363282 0 .65625.296875.65625.660157v-.164063c0-.363281-.292968-.65625-.65625-.65625zm0 0" fill="#fff" fill-opacity=".313725"/><path d="m2.648438 13.132812v.222657c0 .363281.296874.660156.660156.660156h9.261718c.363282 0 .65625-.296875.65625-.660156v-.222657c0 .363282-.292968.65625-.65625.65625h-9.261718c-.363282 0-.660156-.292968-.660156-.65625zm0 0" fill-opacity=".235294"/><path d="m190.48181-168.50444c-5.624463 0-10.873962 2.124797-14.87358 6.124415l-84.616919 84.61692c-3.999618 3.999618-6.249403 9.374104-6.249403 14.873579v275.223718c0 11.62389 9.499092 21.122982 21.122982 21.122982h296.346701c11.62389 0 20.997995-9.499092 20.997995-21.122982v-359.840637c0-11.62389-9.374105-20.997995-20.997995-20.997995zm0 0" fill="none" stroke="#212121" stroke-linecap="round" stroke-linejoin="round" stroke-width="3" transform="matrix(.031253 0 0 .031253 0 6.719392)"/><path d="m4.300781 9.71875c-.367187 0-.664062.292969-.664062.660156v.332032h8.601562v-.332032c0-.367187-.296875-.660156-.660156-.660156zm0 0" fill="url(#t)"/><path d="m520.107819 1175.320848c-44.405209 0-80.307293 35.429688-80.307293 79.834897v439.800526h1040.215638v-439.800526c0-44.405209-35.902083-79.834897-79.834896-79.834897zm0 0" fill="none" stroke="#212121" stroke-linecap="round" stroke-linejoin="round" stroke-width="11.338583" transform="scale(.00826902)"/></svg>

<?xml version="1.0" encoding="UTF-8"?>
<svg xmlns="http://www.w3.org/2000/svg" xmlns:xlink="http://www.w3.org/1999/xlink" width="16pt" height="16pt" viewBox="0 0 16 16" version="1.1">
<defs>
<linearGradient id="linear0" gradientUnits="userSpaceOnUse" x1="254" y1="233.5" x2="254" y2="254.66667" gradientTransform="matrix(0.031253,0,0,0.031253,-0.00000125012,6.693527)">
<stop offset="0" style="stop-color:rgb(0%,0%,0%);stop-opacity:0.27451;"/>
<stop offset="1" style="stop-color:rgb(0%,0%,0%);stop-opacity:0;"/>
</linearGradient>
<radialGradient id="radial0" gradientUnits="userSpaceOnUse" cx="450.90894" cy="189.57936" fx="450.90894" fy="189.57936" r="21.166656" gradientTransform="matrix(0.0000000870852,-0.0390662,-0.0703192,-0.0000000507693,25.238422,31.771802)">
<stop offset="0" style="stop-color:rgb(0%,0%,0%);stop-opacity:0.313725;"/>
<stop offset="0.222222" style="stop-color:rgb(0%,0%,0%);stop-opacity:0.27451;"/>
<stop offset="1" style="stop-color:rgb(0%,0%,0%);stop-opacity:0;"/>
</radialGradient>
<radialGradient id="radial1" gradientUnits="userSpaceOnUse" cx="450.90894" cy="189.57936" fx="450.90894" fy="189.57936" r="21.166656" gradientTransform="matrix(-0.0000000870852,0.0390662,0.0703192,0.0000000507693,-9.361906,-3.789605)">
<stop offset="0" style="stop-color:rgb(0%,0%,0%);stop-opacity:0.313725;"/>
<stop offset="0.222222" style="stop-color:rgb(0%,0%,0%);stop-opacity:0.27451;"/>
<stop offset="1" style="stop-color:rgb(0%,0%,0%);stop-opacity:0;"/>
</radialGradient>
<radialGradient id="radial2" gradientUnits="userSpaceOnUse" cx="450.90894" cy="189.57936" fx="450.90894" fy="189.57936" r="21.166656" gradientTransform="matrix(-0.0000000870852,-0.0390662,0.0703192,-0.0000000507693,-9.361906,31.771802)">
<stop offset="0" style="stop-color:rgb(0%,0%,0%);stop-opacity:0.313725;"/>
<stop offset="0.222222" style="stop-color:rgb(0%,0%,0%);stop-opacity:0.27451;"/>
<stop offset="1" style="stop-color:rgb(0%,0%,0%);stop-opacity:0;"/>
</radialGradient>
<radialGradient id="radial3" gradientUnits="userSpaceOnUse" cx="450.90894" cy="189.57936" fx="450.90894" fy="189.57936" r="21.166656" gradientTransform="matrix(0.0000000870852,0.0390662,-0.0703192,0.0000000507693,25.238421,-3.789605)">
<stop offset="0" style="stop-color:rgb(0%,0%,0%);stop-opacity:0.313725;"/>
<stop offset="0.222222" style="stop-color:rgb(0%,0%,0%);stop-opacity:0.27451;"/>
<stop offset="1" style="stop-color:rgb(0%,0%,0%);stop-opacity:0;"/>
</radialGradient>
<linearGradient id="linear1" gradientUnits="userSpaceOnUse" x1="254" y1="275.83334" x2="254" y2="-211" gradientTransform="matrix(0.031253,0,0,0.031253,0,6.719392)">
<stop offset="0" style="stop-color:rgb(25.882353%,25.882353%,25.882353%);stop-opacity:1;"/>
<stop offset="1" style="stop-color:rgb(38.039216%,38.039216%,38.039216%);stop-opacity:1;"/>
</linearGradient>
<linearGradient id="linear2" gradientUnits="userSpaceOnUse" x1="254" y1="233.5" x2="254" y2="95.916664" gradientTransform="matrix(0.031253,0,0,0.031253,0,6.719392)">
<stop offset="0" style="stop-color:rgb(74.117647%,74.117647%,74.117647%);stop-opacity:1;"/>
<stop offset="1" style="stop-color:rgb(87.843137%,87.843137%,87.843137%);stop-opacity:1;"/>
</linearGradient>
<linearGradient id="linear3" gradientUnits="userSpaceOnUse" x1="254" y1="233.5" x2="254" y2="-168.66667" gradientTransform="matrix(0.031253,0,0,0.031253,0,6.719392)">
<stop offset="0" style="stop-color:rgb(100%,79.215686%,15.686275%);stop-opacity:1;"/>
<stop offset="1" style="stop-color:rgb(100%,83.529412%,30.980392%);stop-opacity:1;"/>
</linearGradient>
<linearGradient id="linear4" gradientUnits="userSpaceOnUse" x1="349.25" y1="43" x2="349.25" y2="-126.33334" gradientTransform="matrix(0.031253,0,0,0.031253,-2.976847,6.719392)">
<stop offset="0" style="stop-color:rgb(0%,0%,0%);stop-opacity:0.27451;"/>
<stop offset="1" style="stop-color:rgb(0%,0%,0%);stop-opacity:0;"/>
</linearGradient>
<linearGradient id="linear5" gradientUnits="userSpaceOnUse" x1="349.25" y1="43" x2="349.25" y2="-126.33334" gradientTransform="matrix(0.031253,0,0,0.031253,-2.149945,6.719392)">
<stop offset="0" style="stop-color:rgb(0%,0%,0%);stop-opacity:0.27451;"/>
<stop offset="1" style="stop-color:rgb(0%,0%,0%);stop-opacity:0;"/>
</linearGradient>
<linearGradient id="linear6" gradientUnits="userSpaceOnUse" x1="349.25" y1="43" x2="349.25" y2="-126.33334" gradientTransform="matrix(0.031253,0,0,0.031253,-1.323043,6.719392)">
<stop offset="0" style="stop-color:rgb(0%,0%,0%);stop-opacity:0.27451;"/>
<stop offset="1" style="stop-color:rgb(0%,0%,0%);stop-opacity:0;"/>
</linearGradient>
<linearGradient id="linear7" gradientUnits="userSpaceOnUse" x1="349.25" y1="43" x2="349.25" y2="-126.33334" gradientTransform="matrix(0.031253,0,0,0.031253,-0.496141,6.719392)">
<stop offset="0" style="stop-color:rgb(0%,0%,0%);stop-opacity:0.27451;"/>
<stop offset="1" style="stop-color:rgb(0%,0%,0%);stop-opacity:0;"/>
</linearGradient>
<linearGradient id="linear8" gradientUnits="userSpaceOnUse" x1="349.25" y1="43" x2="349.25" y2="-126.33334" gradientTransform="matrix(0.031253,0,0,0.031253,0.330761,6.719392)">
<stop offset="0" style="stop-color:rgb(0%,0%,0%);stop-opacity:0.27451;"/>
<stop offset="1" style="stop-color:rgb(0%,0%,0%);stop-opacity:0;"/>
</linearGradient>
<linearGradient id="linear9" gradientUnits="userSpaceOnUse" x1="349.25" y1="43" x2="349.25" y2="-126.33334" gradientTransform="matrix(0.031253,0,0,0.031253,-3.803749,6.719392)">
<stop offset="0" style="stop-color:rgb(0%,0%,0%);stop-opacity:0.27451;"/>
<stop offset="1" style="stop-color:rgb(0%,0%,0%);stop-opacity:0;"/>
</linearGradient>
<linearGradient id="linear10" gradientUnits="userSpaceOnUse" x1="349.25" y1="43" x2="349.25" y2="-126.33334" gradientTransform="matrix(0.031253,0,0,0.031253,-4.630651,6.719392)">
<stop offset="0" style="stop-color:rgb(0%,0%,0%);stop-opacity:0.27451;"/>
<stop offset="1" style="stop-color:rgb(0%,0%,0%);stop-opacity:0;"/>
</linearGradient>
<linearGradient id="linear11" gradientUnits="userSpaceOnUse" x1="349.25" y1="43" x2="349.25" y2="-126.33334" gradientTransform="matrix(0.031253,0,0,0.031253,-5.457553,6.719392)">
<stop offset="0" style="stop-color:rgb(0%,0%,0%);stop-opacity:0.27451;"/>
<stop offset="1" style="stop-color:rgb(0%,0%,0%);stop-opacity:0;"/>
</linearGradient>
<linearGradient id="linear12" gradientUnits="userSpaceOnUse" x1="349.25" y1="43" x2="349.25" y2="-126.33334" gradientTransform="matrix(0.031253,0,0,0.031253,-6.284455,6.719392)">
<stop offset="0" style="stop-color:rgb(0%,0%,0%);stop-opacity:0.27451;"/>
<stop offset="1" style="stop-color:rgb(0%,0%,0%);stop-opacity:0;"/>
</linearGradient>
<linearGradient id="linear13" gradientUnits="userSpaceOnUse" x1="254" y1="233.5" x2="254" y2="95.916664" gradientTransform="matrix(0.031253,0,0,0.031253,0.000000104177,6.719392)">
<stop offset="0" style="stop-color:rgb(100%,43.921569%,26.27451%);stop-opacity:1;"/>
<stop offset="1" style="stop-color:rgb(100%,54.117647%,39.607843%);stop-opacity:1;"/>
</linearGradient>
</defs>
<g id="surface1">
<path style=" stroke:none;fill-rule:nonzero;fill:url(#linear0);" d="M 3.804688 14.003906 L 12.074219 14.003906 L 12.074219 14.679688 L 3.804688 14.679688 Z M 3.804688 14.003906 "/>
<path style=" stroke:none;fill-rule:nonzero;fill:url(#radial0);" d="M 12.074219 13.992188 L 13.394531 13.992188 L 13.394531 13.328125 L 12.074219 13.328125 Z M 12.074219 13.992188 "/>
<path style=" stroke:none;fill-rule:nonzero;fill:url(#radial1);" d="M 3.804688 13.992188 L 2.480469 13.992188 L 2.480469 14.652344 L 3.804688 14.652344 Z M 3.804688 13.992188 "/>
<path style=" stroke:none;fill-rule:nonzero;fill:url(#radial2);" d="M 3.804688 13.992188 L 2.480469 13.992188 L 2.480469 13.328125 L 3.804688 13.328125 Z M 3.804688 13.992188 "/>
<path style=" stroke:none;fill-rule:nonzero;fill:url(#radial3);" d="M 12.074219 13.992188 L 13.394531 13.992188 L 13.394531 14.652344 L 12.074219 14.652344 Z M 12.074219 13.992188 "/>
<path style=" stroke:none;fill-rule:nonzero;fill:url(#linear1);" d="M 5.953125 1.453125 C 5.777344 1.453125 5.613281 1.519531 5.488281 1.644531 L 2.84375 4.289062 C 2.71875 4.414062 2.648438 4.582031 2.648438 4.753906 L 2.648438 13.355469 C 2.648438 13.71875 2.945312 14.015625 3.308594 14.015625 L 12.570312 14.015625 C 12.933594 14.015625 13.226562 13.71875 13.226562 13.355469 L 13.226562 2.109375 C 13.226562 1.746094 12.933594 1.453125 12.570312 1.453125 Z M 5.953125 1.453125 "/>
<path style=" stroke:none;fill-rule:nonzero;fill:url(#linear2);" d="M 4.300781 9.71875 C 3.933594 9.71875 3.636719 10.011719 3.636719 10.378906 L 3.636719 14.015625 L 12.238281 14.015625 L 12.238281 10.378906 C 12.238281 10.011719 11.941406 9.71875 11.578125 9.71875 Z M 4.300781 9.71875 "/>
<path style=" stroke:none;fill-rule:nonzero;fill:url(#linear3);" d="M 5.953125 2.773438 C 5.777344 2.773438 5.613281 2.84375 5.488281 2.96875 L 4.164062 4.289062 C 4.042969 4.414062 3.972656 4.582031 3.972656 4.753906 L 3.972656 7.402344 C 3.972656 7.765625 4.265625 8.058594 4.628906 8.058594 L 11.246094 8.058594 C 11.609375 8.058594 11.902344 7.765625 11.902344 7.402344 L 11.902344 3.433594 C 11.902344 3.070312 11.609375 2.773438 11.246094 2.773438 Z M 5.953125 2.773438 "/>
<path style=" stroke:none;fill-rule:nonzero;fill:url(#linear4);" d="M 7.9375 3.265625 C 8.03125 3.265625 8.105469 3.339844 8.105469 3.433594 L 8.105469 7.402344 C 8.105469 7.492188 8.03125 7.566406 7.9375 7.566406 C 7.847656 7.566406 7.773438 7.492188 7.773438 7.402344 L 7.773438 3.433594 C 7.773438 3.339844 7.847656 3.265625 7.9375 3.265625 Z M 7.9375 3.265625 "/>
<path style=" stroke:none;fill-rule:nonzero;fill:url(#linear5);" d="M 8.765625 3.265625 C 8.855469 3.265625 8.929688 3.339844 8.929688 3.433594 L 8.929688 7.402344 C 8.929688 7.492188 8.855469 7.566406 8.765625 7.566406 C 8.671875 7.566406 8.601562 7.492188 8.601562 7.402344 L 8.601562 3.433594 C 8.601562 3.339844 8.671875 3.265625 8.765625 3.265625 Z M 8.765625 3.265625 "/>
<path style=" stroke:none;fill-rule:nonzero;fill:url(#linear6);" d="M 9.59375 3.265625 C 9.683594 3.265625 9.757812 3.339844 9.757812 3.433594 L 9.757812 7.402344 C 9.757812 7.492188 9.683594 7.566406 9.59375 7.566406 C 9.5 7.566406 9.425781 7.492188 9.425781 7.402344 L 9.425781 3.433594 C 9.425781 3.339844 9.5 3.265625 9.59375 3.265625 Z M 9.59375 3.265625 "/>
<path style=" stroke:none;fill-rule:nonzero;fill:url(#linear7);" d="M 10.417969 3.265625 C 10.511719 3.265625 10.585938 3.339844 10.585938 3.433594 L 10.585938 7.402344 C 10.585938 7.492188 10.511719 7.566406 10.417969 7.566406 C 10.328125 7.566406 10.253906 7.492188 10.253906 7.402344 L 10.253906 3.433594 C 10.253906 3.339844 10.328125 3.265625 10.417969 3.265625 Z M 10.417969 3.265625 "/>
<path style=" stroke:none;fill-rule:nonzero;fill:url(#linear8);" d="M 11.246094 3.265625 C 11.335938 3.265625 11.410156 3.339844 11.410156 3.433594 L 11.410156 7.402344 C 11.410156 7.492188 11.335938 7.566406 11.246094 7.566406 C 11.15625 7.566406 11.082031 7.492188 11.082031 7.402344 L 11.082031 3.433594 C 11.082031 3.339844 11.15625 3.265625 11.246094 3.265625 Z M 11.246094 3.265625 "/>
<path style=" stroke:none;fill-rule:nonzero;fill:url(#linear9);" d="M 7.113281 3.265625 C 7.203125 3.265625 7.277344 3.339844 7.277344 3.433594 L 7.277344 7.402344 C 7.277344 7.492188 7.203125 7.566406 7.113281 7.566406 C 7.019531 7.566406 6.945312 7.492188 6.945312 7.402344 L 6.945312 3.433594 C 6.945312 3.339844 7.019531 3.265625 7.113281 3.265625 Z M 7.113281 3.265625 "/>
<path style=" stroke:none;fill-rule:nonzero;fill:url(#linear10);" d="M 6.285156 3.265625 C 6.375 3.265625 6.449219 3.339844 6.449219 3.433594 L 6.449219 7.402344 C 6.449219 7.492188 6.375 7.566406 6.285156 7.566406 C 6.191406 7.566406 6.117188 7.492188 6.117188 7.402344 L 6.117188 3.433594 C 6.117188 3.339844 6.191406 3.265625 6.285156 3.265625 Z M 6.285156 3.265625 "/>
<path style=" stroke:none;fill-rule:nonzero;fill:url(#linear11);" d="M 5.457031 3.597656 C 5.550781 3.597656 5.621094 3.671875 5.621094 3.761719 L 5.621094 7.402344 C 5.621094 7.492188 5.550781 7.566406 5.457031 7.566406 C 5.367188 7.566406 5.292969 7.492188 5.292969 7.402344 L 5.292969 3.761719 C 5.292969 3.671875 5.367188 3.597656 5.457031 3.597656 Z M 5.457031 3.597656 "/>
<path style=" stroke:none;fill-rule:nonzero;fill:url(#linear12);" d="M 4.628906 4.425781 C 4.722656 4.425781 4.796875 4.5 4.796875 4.589844 L 4.796875 7.402344 C 4.796875 7.492188 4.722656 7.566406 4.628906 7.566406 C 4.539062 7.566406 4.464844 7.492188 4.464844 7.402344 L 4.464844 4.589844 C 4.464844 4.5 4.539062 4.425781 4.628906 4.425781 Z M 4.628906 4.425781 "/>
<path style="fill:none;stroke-width:3;stroke-linecap:round;stroke-linejoin:round;stroke:rgb(12.941176%,12.941176%,12.941176%);stroke-opacity:1;stroke-miterlimit:4;" d="M 190.48181 -126.258474 C 184.857347 -126.258474 179.607848 -124.008689 175.60823 -120.009071 L 133.237276 -77.763105 C 129.362646 -73.763487 127.112861 -68.389001 127.112861 -62.889526 L 127.112861 21.852382 C 127.112861 33.476272 136.486966 42.850377 148.110856 42.850377 L 359.840637 42.850377 C 371.464527 42.850377 380.838632 33.476272 380.838632 21.852382 L 380.838632 -105.135492 C 380.838632 -116.759382 371.464527 -126.258474 359.840637 -126.258474 Z M 190.48181 -126.258474 " transform="matrix(0.031253,0,0,0.031253,0,6.719392)"/>
<path style=" stroke:none;fill-rule:nonzero;fill:rgb(100%,100%,100%);fill-opacity:0.313725;" d="M 5.953125 1.453125 C 5.777344 1.453125 5.613281 1.519531 5.488281 1.644531 L 2.84375 4.289062 C 2.71875 4.414062 2.648438 4.582031 2.648438 4.753906 L 2.648438 4.917969 C 2.648438 4.742188 2.71875 4.574219 2.84375 4.453125 L 5.488281 1.804688 C 5.613281 1.683594 5.777344 1.613281 5.953125 1.613281 L 12.570312 1.613281 C 12.933594 1.613281 13.226562 1.910156 13.226562 2.273438 L 13.226562 2.109375 C 13.226562 1.746094 12.933594 1.453125 12.570312 1.453125 Z M 5.953125 1.453125 "/>
<path style=" stroke:none;fill-rule:nonzero;fill:rgb(0%,0%,0%);fill-opacity:0.235294;" d="M 2.648438 13.132812 L 2.648438 13.355469 C 2.648438 13.71875 2.945312 14.015625 3.308594 14.015625 L 12.570312 14.015625 C 12.933594 14.015625 13.226562 13.71875 13.226562 13.355469 L 13.226562 13.132812 C 13.226562 13.496094 12.933594 13.789062 12.570312 13.789062 L 3.308594 13.789062 C 2.945312 13.789062 2.648438 13.496094 2.648438 13.132812 Z M 2.648438 13.132812 "/>
<path style="fill:none;stroke-width:3;stroke-linecap:round;stroke-linejoin:round;stroke:rgb(12.941176%,12.941176%,12.941176%);stroke-opacity:1;stroke-miterlimit:4;" d="M 190.48181 -168.50444 C 184.857347 -168.50444 179.607848 -166.379643 175.60823 -162.380025 L 90.991311 -77.763105 C 86.991693 -73.763487 84.741908 -68.389001 84.741908 -62.889526 L 84.741908 212.334192 C 84.741908 223.958082 94.241 233.457174 105.86489 233.457174 L 402.211591 233.457174 C 413.835481 233.457174 423.209586 223.958082 423.209586 212.334192 L 423.209586 -147.506445 C 423.209586 -159.130335 413.835481 -168.50444 402.211591 -168.50444 Z M 190.48181 -168.50444 " transform="matrix(0.031253,0,0,0.031253,0,6.719392)"/>
<path style=" stroke:none;fill-rule:nonzero;fill:url(#linear13);" d="M 4.300781 9.71875 C 3.933594 9.71875 3.636719 10.011719 3.636719 10.378906 L 3.636719 10.710938 L 12.238281 10.710938 L 12.238281 10.378906 C 12.238281 10.011719 11.941406 9.71875 11.578125 9.71875 Z M 4.300781 9.71875 "/>
<path style="fill:none;stroke-width:11.338583;stroke-linecap:round;stroke-linejoin:round;stroke:rgb(12.941176%,12.941176%,12.941176%);stroke-opacity:1;stroke-miterlimit:4;" d="M 520.107819 1175.320848 C 475.70261 1175.320848 439.800526 1210.750536 439.800526 1255.155745 L 439.800526 1694.956271 L 1480.016164 1694.956271 L 1480.016164 1255.155745 C 1480.016164 1210.750536 1444.114081 1175.320848 1400.181268 1175.320848 Z M 520.107819 1175.320848 " transform="matrix(0.00826902,0,0,0.00826902,0,0)"/>
</g>
</svg>
